X:1
T:Meditation
T:Tom Brier https://musescore.com/user/29431458/scores/5285008 Transcribed from: Album: "Constellations", Track 4: "Meditation" 
T:Meditation
C:Tom Brier
%%score { ( 1 4 ) | ( 2 3 ) }
L:1/8
Q:1/2=45
M:4/4
K:Bbmin
V:1 treble nm="Piano" snm="Pno."
V:4 treble 
V:2 bass 
V:3 bass 
V:1
"^Adagio"!p! z2 |:!p! z2 (Bc (3d2 f2 d'2 | (3c'2 b2 d'2 (3c'2 b2 c'2 | (3d'2 f2 a2 (3g2 f2 =d2 | %4
 e g2 d-) d3 (e |!<(! f a2 d'-!<)!!>(! d' d2 e!>)! |!p! f a2 d'- d' d2 e | %7
!<(! (3fed Bd-!<)!!>(! d f2 e-)!>)! |!p! e(Aa)(a a'4) | z2 (de (3f2 a2 f'2 | %10
 (3e'2 d'2 f'2 (3e'2 d'2 f'2 | e' d'2 __b g e2 f- | f2 fg a b2 g- | g2 ef g a2 f- | f2 de f g2 e- | %15
 e2 cd e f2 B-) |1 B8 :|2 !fermata!B4 !fermata!c4 |: d8 | %19
!<(! (3([Ge]2 [Af]2 [Bg]2!<)!!>(! [Af]2 [Ge]2)!>)! |!p! d8 | %21
!<(! (3([Af]2 [Bg]2 [_ca]2!<)!!>(! [Bg]2 [Af]2)!>)! |!mp! (g B2 d) ([__Ba] g2 e) | %23
 (f A2 d) ([Bg] [Af]2 [Fd]) | ([Ge] B2 f) ([Ge] B2 d) | ([Gc] [Ec]2 [Fd]!>(! [Ge] [Af]2 [Bg]!>)! | %26
!p! f8) |!<(! (3([_ca]2 [db]2 [e_c']2!<)!!>(! [db]2 [ca]2)!>)! |!p! g8 | %29
 (3([__Bg]2 [_ca]2 [d__b]2 [ca]2 [Bg]2) | (f A2 d) ([Bg] [Af]2 d) | (e G2 c) ([Af] [Ge]2 c) | %32
 (d G2 _f) (e2 d2 |1 [Fd]8) :|2 [Fd]4 !fermata![F_cd]4 |:[K:Gb] [DB] [Gd]2 [DA] [Fd]2 [Af]2 | %36
 [Ge] [Bg]2 [Fd] [Bf]2 [Fd]2 | [Ec] [Ae]2 [DB] [Gd]2 [DB]2 | [A,E] [CA]2 [A,E] [CF]4 | %39
!<(! [DB] [Gd]2 [EB] [Ge]2 [Bg]2!<)! |!>(! [Fd] [Bf]2 [Fd] [Bg]2 [Bf]2!>)! | %41
!p! [E=c] [=Af]2 [Ec] [Fd]2 [Ec]2 | [DB] [Fd]2 [DB] [Fc]2 [CA]2 | %43
!<(! [DB] [Gd]2 [DA] [Fd]2 [Af]2!<)! |!>(! [Ge] [Bg]2 [Fd] [Bf]2 [Fd]2!>)! | %45
!p! [Ec] [Ae]2 [DB] [Gd]2 [DB]2 | [A,E] [CA]2 [A,E] [CF]4 | [Bg] [_Fd]2 [Bg] [G__e]4 | %48
 [Fd] [CA]2 [Fd] [D__B]4 | [__D__B] [__B,G]2 [DB] [CA]2 [A,F]2 |1 G4 [CA]4 :|2 %51
 G2 AB (3=A2 B2 =c2 ||[K:Bbmin]!p! z2 (Bc (3d2 f2 d'2 | (3c'2 b2 d'2 (3c'2 b2 c'2 | %54
 (3d'2 f2 a2 (3g2 f2 =d2 | e g2 d-) d3 (e |!<(! f a2 d'-!<)!!>(! d' d2 e!>)! | %57
!p! f a2 d'- d' d2 e |!<(! (3fed Bd-!<)!!>(! d f2 e-)!>)! |!p! e(Aa)(a a'4) | z2 (de (3f2 a2 f'2 | %61
 (3e'2 d'2 f'2 (3e'2 d'2 f'2 | e' d'2 __b g e2 f-) | f2 (fg a b2 g- | g2 ef g a2 f- | %65
 f2 de f g2 e- | e2 cd e f2 B-) | B8 |] %68
V:2
 F,2 |:!ped! B,4!ped-up!!ped! A,4!ped-up! |!ped! __A,4!ped-up!!ped! G,4!ped-up! | %3
!ped! F,4!ped-up!!ped! F,4!ped-up! |!ped! G,4!ped-up!!ped! G,4!ped-up! | %5
!ped! F,4!ped-up!!ped! [G,B,D]2 [__B,D]2!ped-up! |!ped! F,4!ped-up!!ped! [F,B,D]2 [A,D]2!ped-up! | %7
!ped! =G,4!ped-up!!ped! E,4!ped-up! |!ped! A,6[K:treble] A,2!ped-up! | %9
!ped! D4!ped-up!!ped! C4!ped-up! |!ped! _C4!ped-up!!ped! A,4!ped-up! | %11
!ped! __B,4!ped-up!!ped! G,4!ped-up! |!ped! A,4!ped-up!!ped! B,4!ped-up! | %13
!ped! B,4!ped-up!!ped! __B,4!ped-up! |!ped! A,4!ped-up!!ped! F,4!ped-up! | %15
!ped! G,4!ped-up!!ped! F,4!ped-up! |1!ped! [B,D]2 F,2!ped-up!!ped! D2 C2!ped-up! :|2 %17
!ped! !fermata![B,D]4!ped-up!!ped! !fermata![A,CG]4!ped-up! |: %18
!ped! (3(A,2 B,2 A,2 G,2 A,2)!ped-up! |!ped! C,8!ped-up! |!ped! (3(F,2 G,2 F,2 E,2 F,2)!ped-up! | %21
!ped! A,,8!ped-up! |!ped! !arpeggio![G,,D,B,]4!ped-up!!ped! !arpeggio![G,,D,__B,]4!ped-up! | %23
!ped! !arpeggio![F,,D,A,]4!ped-up!!ped! !arpeggio![D,,A,,F,]4!ped-up! | %24
!ped! !arpeggio![E,,B,,G,]4!ped-up!!ped! !arpeggio![G,,D,B,]4!ped-up! | %25
!ped! !arpeggio![A,,E,C]4!ped-up!!ped! !arpeggio![C,A,E]4!ped-up! | %26
!ped! (3(F,2 G,2 F,2 =E,2 F,2)!ped-up! |!ped! D,8!ped-up! |!ped! (3(D,2 E,2 D,2 C,2 D,2)!ped-up! | %29
!ped! G,8!ped-up! |!ped! A,8!ped-up! |!ped! A,8!ped-up! |!ped! G,8!ped-up! |1!ped! (D,8!ped-up! :|2 %34
!ped! D2) A,2!ped-up!!ped! !fermata!D,4!ped-up! |:[K:Gb]!ped! G, B,2 F, A,2 D2!ped-up! | %36
!ped! B, E2 B, D2 B,2!ped-up! |!ped! A, C2 G, B,2 G,2!ped-up! |!ped! G, E,2 C, D,2 A,2!ped-up! | %39
!ped! G, B,2 G, B,2 E2!ped-up! |!ped! B, D2 B, E2 D2!ped-up! |!ped! F, =C2 F, B,2 =A,2!ped-up! | %42
!ped! F, B,2 F, A,2 D,2!ped-up! |!ped! G, B,2 F, A,2 D2!ped-up! |!ped! B, E2 B, D2 B,2!ped-up! | %45
!ped! A, C2 G, B,2 G,2!ped-up! |!ped! G, E,2 C, D,2 A,2!ped-up! |!ped! D G,2 D C2 __B,2!ped-up! | %48
!ped! A, F,2 A, G,2 _F,2!ped-up! |!ped! E,2 __E,2 D,2 C,2!ped-up! |1 %50
!ped! B,, D,2 G,!ped-up!!ped! F,2 A,2!ped-up! :|2!ped! B,,2 G,2!ped-up!!ped! F,4!ped-up! || %52
[K:Bbmin]!ped! B,4!ped-up!!ped! A,4!ped-up! |!ped! __A,4!ped-up!!ped! G,4!ped-up! | %54
!ped! F,4!ped-up!!ped! F,4!ped-up! |!ped! G,4!ped-up!!ped! G,4!ped-up! | %56
!ped! F,4!ped-up!!ped! [G,B,]2 [__B,D]2!ped-up! |!ped! F,4!ped-up!!ped! [F,B,]2 [A,D]2!ped-up! | %58
!ped! =G,4!ped-up!!ped! E,4!ped-up! |!ped! A,6[K:treble] A,2!ped-up! | %60
!ped! D4!ped-up!!ped! C4!ped-up! |!ped! _C4!ped-up!!ped! A,4!ped-up! | %62
!ped! __B,4!ped-up!!ped! G,4!ped-up! |!ped! A,4!ped-up!!ped! B,4!ped-up! | %64
!ped! B,4!ped-up!!ped! __B,4!ped-up! |!ped! A,4!ped-up!!ped! F,4!ped-up! | %66
!ped! G,4!ped-up!!ped! F,4!ped-up! |!ped! [B,D]2 F,2!8vb(! !fermata!B,,4!ped-up!!8vb)! |] %68
V:3
 x2 |: x2 [DF]2 x2 [DF]2 | x2 [DF]2 x2 [CE]2 | x2 [A,D]2 x2 [=A,=D]2 | x2 [B,E]2 x2 [__B,E]2 | %5
 x2 [A,D]2 x4 | x2 [A,D]2 x4 | x2 [DF]2 x2 [DE]2 | x6[K:treble] x2 | x2 [FA]2 x2 [FA]2 | %10
 x2 [FA]2 x2 [FA]2 | x2 [DG]2 x2 [DG]2 | x2 [DF]2 x2 [=DA]2 | x2 [EG]2 x2 [EG]2 | %14
 x2 [DF]2 x2 [DF]2 | x2 [B,E]2 x2 [=A,E]2 |1 x8 :|2 x8 |: D,8 | x2 [A,C]4 [A,C]2 | B,,8 | %21
 x2 [F,_C]4 [F,C]2 | x8 | x8 | x8 | x8 | x8 | x2 [F,_C]4 [F,C]2 | x8 | x2 [__B,D]4 [=B,D]2 | %30
 x2 [DF]4 [DF]2 | x2 [CE]4 [CE]2 | x2 [__B,D]4 [B,D]2 |1 z2 A,B, (3A,2 =G,2 A,2 :|2 x8 |: %35
[K:Gb] x8 | x8 | x8 | x8 | x8 | x8 | x8 | x8 | x8 | x8 | x8 | x8 | x8 | x8 | x8 |1 x8 :|2 x8 || %52
[K:Bbmin] x2 [DF]2 x2 [DF]2 | x2 [DF]2 x2 [CE]2 | x2 [A,D]2 x2 [=A,E]2 | x2 [B,E]2 x2 [__B,E]2 | %56
 x2 [A,D]2 x4 | x2 [A,D]2 x4 | x2 [DF]2 x2 [DE]2 | x6[K:treble] x2 | x2 [FA]2 x2 [FA]2 | %61
 x2 [FA]2 x2 [FA]2 | x2 [DG]2 x2 [DG]2 | x2 [DF]2 x2 [=DA]2 | x2 [EG]2 x2 [EG]2 | %65
 x2 [DF]2 x2 [DF]2 | x2 [B,E]2 x2 [=A,E]2 | x4!8vb(! x4!8vb)! |] %68
V:4
 x2 |: x8 | x8 | x8 | x8 | x8 | x8 | x4 =G3 _G- | G x7 | x8 | x8 | x8 | x8 | x8 | x8 | x8 |1 x8 :|2 %17
 x8 |: (3(F2 G2 F2 E2 F2) | x8 | (3(D2 E2 D2 C2 D2) | x8 | x8 | x8 | x8 | x8 | %26
 (3(A2 B2 A2 =G2 A2) | x8 | (3(B2 _c2 B2 =A2 B2) | x8 | x8 | x8 | x8 |1 x8 :|2 x8 |:[K:Gb] x8 | %36
 x8 | x8 | x8 | x8 | x8 | x8 | x8 | x8 | x8 | x8 | x8 | x8 | x8 | x8 |1 x8 :|2 x8 ||[K:Bbmin] x8 | %53
 x8 | x8 | x8 | x8 | x8 | x4 =G3 _G- | G x7 | x8 | x8 | x8 | x8 | x8 | x8 | x8 | x8 |] %68

